X: 2
T:The Catlins Barndance
M:6/8
L:1/8
C:Mike Moroney
R:Jig
A:Dunedin, New Zealand
K:G
"D7"D2C |:"G" B,CD DEF | G>GG GAB | "C" cAA "G"BGG |"D" E>DD DDC |  "G"B
,CD DEF | G>GG GAB |
 "D"cAF DEF |1 "G" G>GG GDC :|2 "G" G>GG Gdc |: B>GG GAB | "C" c>EE E2E
| "D" F>FF FGA | "G" B>
DD Ddc || B>GG GAB |1 "C" c>EE E2E | "D" FED cAF | "G"G2G Gdc :|2  "C" c
>EE Ed_d | "D7"cAF DEF |"G"GDB, G,3||
